X: 138028
Q: "Irish Jig."
M: 6/8
L: 1/8
K: Am
uB |\
vA2vA AGE | vA2vA AGE | vG2vG GFE | G3 E3 |\
|: ud |\
ve2ve edc | e3 g3 | G2G GFE | G3 E3 |\


